!!!!SEGMENT: Lps2002-In_nomine_Jesu.krn
!!!id: Lps2002
!!!AGN: Motet
!!!SCT: Sherr (1989)
!!!voices: 4
!!!COM: Lupus Hellinck
!!!OTL: In nomine Jesu
**kern	**kern	**kern	**kern
*part4	*part3	*part2	*part1
*staff4	*staff3	*staff2	*staff1
*I"Bassus	*I"Tenor	*I"Altus	*I"Superius
*I'B	*I'T	*I'A	*I'S
*clefF4	*clefGv2	*clefGv2	*clefG2
*k[]	*k[]	*k[]	*k[]
*C:	*C:	*C:	*C:
*M2/1	*M2/1	*M2/1	*M2/1
*met(C|)	*met(C|)	*met(C|)	*met(C|)
!!section: Prima pars: In nomine Jesu
!!!OMD: Prima pars: In nomine Jesu
=1	=1	=1	=1
0r	0E	0r	0r
=2	=2	=2	=2
0r	1G	0r	0r
.	1A	.	.
=3	=3	=3	=3
0r	1.c	0r	0e
.	2c	.	.
=4	=4	=4	=4
0r	1c	0r	1g
.	2r	.	1a
.	[2F	.	.
=5	=5	=5	=5
0AA	2F]	0r	1.cc
.	2E	.	.
.	2F	.	.
.	2A	.	2cc
=6	=6	=6	=6
1C	2G	0r	1cc
.	2.A	.	.
1D	.	.	2r
.	4G	.	.
.	4F	.	[2a
.	4E	.	.
=7	=7	=7	=7
1.F	1D	0A	4a]
.	.	.	4g
.	.	.	4a
.	.	.	4b
.	2r	.	4cc
.	.	.	4a
2F	[2A	.	[2cc
=8	=8	=8	=8
1F	2A]	1c	4cc]
.	.	.	4b
.	2A	.	1a
1r	1B	1d	.
.	.	.	2g#i
=9	=9	=9	=9
0D	[0A	1.f	0a
.	.	2f	.
=10	=10	=10	=10
0F	0A]	2.f	0a
.	.	8eL	.
.	.	8dJ	.
.	.	2c	.
.	.	2d	.
=11	=11	=11	=11
[0C	0c	[0e	[0g
=12	=12	=12	=12
0C;]	0c;	0e;]	0g;]
=13	=13	=13	=13
0r	1r	1G	0r
.	1c	1A	.
=14	=14	=14	=14
0r	1d	1G	1r
.	2c	1r	1g
.	[2c	.	.
=15	=15	=15	=15
0r	2c]	0r	1a
.	2A	.	.
.	2B	.	2g
.	2c	.	[2g
=16	=16	=16	=16
1r	1A	1c	2g]
.	.	.	2f#i
1G	1G	1d	2.g
.	.	.	4f
=17	=17	=17	=17
1A	1r	2c	2e
.	.	1c	2c
1G	2r	.	1d
.	[2g	2B	.
=18	=18	=18	=18
2E	2g]	1c	2c
2F	2f	.	2.cc
1G	2e	2r	.
.	.	.	8bL
.	.	.	8aJ
.	2d	[2g	2b
=19	=19	=19	=19
2r	2c	2g]	1e
2C	2e	2g	.
2D	2d	2f	2f
2E	[2c	[2e	2g
=20	=20	=20	=20
1F	4c]	2e]	2.a
.	4B	.	.
.	1A	2d	.
.	.	.	4b
1E	.	[1e	2cc
.	2G#i	.	[2b
=21	=21	=21	=21
2r	1A	1e]	4b]
.	.	.	4a
1A	.	.	2a
.	1E	2r	2cc
2G	.	2g	[2b
=22	=22	=22	=22
1A	0r	2e	4b]
.	.	.	4a
.	.	1f	1a
1B-X	.	.	.
.	.	4e	2g
.	.	4d	.
=23	=23	=23	=23
1A	2r	2f	2a
.	2A	1e	2cc
2r	2G	.	2b
[2A	2F	2d	2a
=24	=24	=24	=24
2A]	1E	0e	2cc
2G	.	.	2.b
1A	2r	.	.
.	.	.	4a
.	[2e	.	[2a
=25	=25	=25	=25
1B	2e]	1r	2a]
.	2d	.	2g#i
1A	1e	2r	[1a
.	.	[2A	.
=26	=26	=26	=26
1D	1f	2A]	1a]
.	.	2F	.
1r	1e	2G	2r
.	.	[2A	[2cc
=27	=27	=27	=27
0r	2r	2A]	2cc]
.	1e	2G	2b
.	.	1F	1a
.	2d	.	.
=28	=28	=28	=28
2r	1e	2E	2g
1A	.	2e	1cc
.	1f	2c	.
2F	.	2d	2a
=29	=29	=29	=29
2G	1e	2B	2b
2.A	.	2.c	2e
.	2r	.	2f
4G	.	4B	.
2E	[2e	[2B	2g
=30	=30	=30	=30
1F	2e]	2B]	1a
.	2d	2A	.
2E	1e	2B	2g
[2A	.	2c	[2cc
=31	=31	=31	=31
2A]	1f	2A	2cc]
2F	.	1d	2a
2G	1e	.	2b
2A	.	2c	2cc
=32	=32	=32	=32
1D	2d	1f	2b
.	2c	.	1a
1E	1B	1e	.
.	.	.	2g#i
=33	=33	=33	=33
2r	2A	2c	0a
1F	2c	2A	.
.	2d	1A	.
2D	2f	.	.
=34	=34	=34	=34
1G	2e	0r	1r
.	1d	.	.
1E	.	.	2r
.	2c#i	.	2g
=35	=35	=35	=35
0D	1d	2r	2f
.	.	1F	1a
.	1A	.	.
.	.	2D	4g
.	.	.	4f
=36	=36	=36	=36
1r	2r	1A	2.e
.	1c	.	.
.	.	.	4f
2r	.	1r	4g
.	.	.	4c
2A	2A	.	2cc
=37	=37	=37	=37
2G	1d	1r	2b
2F	.	.	1a
1E	1B	2r	.
.	.	[2e	2g#i
=38	=38	=38	=38
1AA	1A	2e]	[0a
.	.	2c	.
2r	1r	2d	.
[2A	.	2e	.
=39	=39	=39	=39
2A]	2r	2A	1a]
2F	2A	2a	.
2G	2B	2g	2r
2A	2c	2e	[2a
=40	=40	=40	=40
1D	1d	1f	2a]
.	.	.	2f
1r	2c	2e	2g
.	2A	[2f	2a
=41	=41	=41	=41
0r	1B-X	2f]	1d
.	.	4e	.
.	.	4d	.
.	2A	2.c	2r
.	2F	.	2A
.	.	4A	.
=42	=42	=42	=42
0r	2G	2B	1e
.	1A	2.c	.
.	.	.	1e
.	.	4G	.
.	2E	[2g	.
=43	=43	=43	=43
1r	2G	4g]	2d
.	.	4f	.
.	2.A	1e	2c
1D	.	.	1f
.	4G	.	.
.	4A	2d	.
.	4B	.	.
=44	=44	=44	=44
1A	1c	2e	0e
.	.	2A	.
1A	2r	2.c	.
.	2c	.	.
.	.	4d	.
=45	=45	=45	=45
2G	2B	2e	1r
2F	2.A	2.f	.
1B-X	.	.	1d
.	4F	4e	.
.	[2f	[2d	.
=46	=46	=46	=46
1A	4f]	2d]	1a
.	8eL	.	.
.	8dJ	.	.
.	2e	2c#i	.
1D	2f	2d	1a
.	2F	2A	.
=47	=47	=47	=47
0r	2G	1e	2g
.	2A	.	2e
.	2.E	1e	2.g
.	4F	.	4a
=48	=48	=48	=48
0r	2G	2d	2b
.	2A	2c	2cc
.	2D	1f	2a
.	[2A	.	[2cc
=49	=49	=49	=49
1AA	4A]	0e	4cc]
.	4B	.	4b
.	4c	.	2a
.	4A	.	.
1E	2B	.	[1g
.	2c	.	.
=50	=50	=50	=50
1E	2G	2r	1g]
.	2g	2G	.
2D	2f	2A	1r
2C	[2e	[2c	.
=51	=51	=51	=51
1F	2e]	2c]	2r
.	2d	4B	1a
.	.	4A	.
1E	1e	2B	.
.	.	2c	2g
=52	=52	=52	=52
1r	2r	2d	2.f
.	1f	1a	.
.	.	.	4e
2r	.	.	2d
[2A	2e	2a	2c
=53	=53	=53	=53
2A]	1d	2f	1B-X
2G	.	2g	.
2.F	2.D	2a	2A
.	.	4d	[2f
4E	4E	4c	.
=54	=54	=54	=54
2D	2F	4B	4f]
.	.	4A	4d
2C	1E	1A	4e
.	.	.	4f
1BB-X	.	.	2g
.	2D	2G	4f
.	.	.	8eL
.	.	.	8dJ
=55	=55	=55	=55
0AA	1E	0A	2.c
.	.	.	8dL
.	.	.	8eJ
.	2r	.	2f
.	2E	.	[2e
=56	=56	=56	=56
0r	1A	2r	4e]
.	.	.	4d
.	.	2A	2c
.	1G	1d	1B
=57	=57	=57	=57
1AA	2r	1c	1A
.	1c	.	.
1D	.	2r	1r
.	2B-X	[2f	.
=58	=58	=58	=58
1C	2A	2f]	2r
.	2G	2e	2e
1r	1F	4d	1a
.	.	4c	.
.	.	4B	.
.	.	4A	.
=59	=59	=59	=59
2r	2E	1B	1g
2E	2.e	.	.
1A	.	4A	2r
.	4d	4B	.
.	4e	4c	[2cc
.	4f	4d	.
=60	=60	=60	=60
1G	2g	4e	2cc]
.	.	4f	.
.	2G	4g	2b
.	.	4e	.
2r	2A	2f	2a
2G	2B	[2e	2g
=61	=61	=61	=61
2A	2c	2e]	1f
2B	2r	2d	.
2.c	2r	[1e	2e
.	[2c	.	2g
4B	.	.	.
=62	=62	=62	=62
2A	2c]	1e]	2a
2G	2B	.	2b
2.F	2.A	2r	2cc
.	.	2c	2a
4E	4B	.	.
=63	=63	=63	=63
2D	2B	2d	2b
2C	1A	2e	2cc
1BB-X	.	2f	1dd
.	2G	2g	.
=64	=64	=64	=64
0AA	0A	[0e	1cc
.	.	.	2r
.	.	.	[2c
=65	=65	=65	=65
1.A	2r	1e]	2c]
.	1c	.	2c
.	.	2r	2.e
2A	4B	2c	.
.	4A	.	4f
=66	=66	=66	=66
1G	1B	2d	1g
.	.	2e	.
1A	2r	[1c	2f
.	2A	.	[2e
=67	=67	=67	=67
0F	2A	1c]	2e]
.	2A	.	4d
.	.	.	4c
.	2D	1A	1d
.	[2A	.	.
=68	=68	=68	=68
0E	2A]	0B	[0e
.	4G	.	.
.	4F	.	.
.	1G	.	.
=69	=69	=69	=69
2r	0A	0c	0e]
2.AA	.	.	.
4BB	.	.	.
4C	.	.	.
4D	.	.	.
=70	=70	=70	=70
4E	0r	2B	2r
4AA	.	.	.
1A	.	1c	1e
4G	.	4B	2f
4F	.	4A	.
=71	=71	=71	=71
1E	2r	1B	1g
.	1E	.	.
2AA	.	2c	1a
2D	2F	[2d	.
=72	=72	=72	=72
2BB	1G	2d]	1g
1C	.	1e	.
.	1A	.	1r
4BB	.	4d	.
4AA	.	4c	.
=73	=73	=73	=73
1E	1G	2B	2r
.	.	1e	1g
2r	1c	.	.
[2A	.	2c	2a
=74	=74	=74	=74
2A]	1B	2.d	1b
2G	.	.	.
.	.	4e	.
1A	2A	2f	1cc
.	2c	2e	.
=75	=75	=75	=75
0r	2d	2r	2b
.	2e	1A	1cc
.	1f	.	.
.	.	2F	4b
.	.	.	4a
=76	=76	=76	=76
0r	2e	2G	2b
.	2c	2A	1a
.	2.d	1B-X	.
.	.	.	2g
.	4e	.	.
=77	=77	=77	=77
2r	2f	1A	2a
1A	2e	.	1cc
.	2c	1a	.
2F	[2d	.	4b
.	.	.	4a
=78	=78	=78	=78
2G	4d]	2g	2b
.	4e	.	.
2A	1f	2c	1a
1B-X	.	2.d	.
.	4e	.	2g
.	4d	4e	.
=79	=79	=79	=79
0A	2.c	2f	1a
.	.	2e	.
.	4d	.	.
.	2e	1c	2r
.	[2A	.	[2cc
=80	=80	=80	=80
1r	2A]	2r	2cc]
.	2G	1e	2b
2r	2A	.	2cc
[2A	2F	2d	2a
=81	=81	=81	=81
2A]	1E	4e	1b
.	.	4f	.
2G	.	4g	.
.	.	4e	.
4A	2D	2f	2r
4B	.	.	.
4c	2A	[2e	2a
4A	.	.	.
=82	=82	=82	=82
2B	2E	2e]	2g
1A	2F	2d	4a
.	.	.	4b
.	1E	2.e	4cc
.	.	.	4a
2G	.	.	[2b
.	.	4d	.
=83	=83	=83	=83
2A	1r	2c	4b]
.	.	.	4a
2F	.	2A	1a
1E	2r	1B	.
.	[2e	.	2g#i
=84	=84	=84	=84
2r	2e]	2A	1a
1A	2d	2F	.
.	4e	1E	1r
.	4f	.	.
2G	4g	.	.
.	4e	.	.
=85	=85	=85	=85
4A	2f	2D	2r
4B	.	.	.
4c	1e	2A	2a
4A	.	.	.
2B	.	2E	2g
[2A	2d	2F	4a
.	.	.	4b
=86	=86	=86	=86
2A]	2.e	1E	4cc
.	.	.	4a
2G	.	.	2.b
.	4d	.	.
2A	2c	2e	.
.	.	.	4a
2F	2A	2d	[2a
=87	=87	=87	=87
1E	1B	1e	2a]
.	.	.	2g#i
[1AA	[1A	[1e	[1a
=	=	=	=
00AA]	00A]	00e]	00a]
=||	=||	=||	=||
*M2/1	*M2/1	*M2/1	*M2/1
*met(C|)	*met(C|)	*met(C|)	*met(C|)
!!section: Secunda pars: Oremus sancti nominis
!!!OMD: Secunda pars: Oremus sancti nominis
1.A	0c	0e	1r
.	.	.	[1a
2G	.	.	.
=88	=88	=88	=88
1F	1A	1d	1a]
1E	1B	1e	1g
=89	=89	=89	=89
1r	1A	1e	1a
[1AA	[1c	1r	1a
=90	=90	=90	=90
2AA]	2c]	0e	0cc
2BB	2B	.	.
1C	2A	.	.
.	2G	.	.
=91	=91	=91	=91
1D	1F	1d	0a
1AA	2E	1e	.
.	[2c	.	.
=92	=92	=92	=92
[0E	2c]	[0e	[0g
.	4B	.	.
.	4A	.	.
.	[1B	.	.
=93	=93	=93	=93
0E;]	0B;]	0e;]	0g;]
=94	=94	=94	=94
0r	1e	0r	1r
.	1d	.	1a
=95	=95	=95	=95
1r	1e	0r	2g
.	.	.	1cc
1A	[1e	.	.
.	.	.	4b
.	.	.	4a
=96	=96	=96	=96
2G	1e]	1r	4b
.	.	.	4a
1c	.	.	4g
.	.	.	4f
.	1e	1A	1e
4B	.	.	.
4A	.	.	.
=97	=97	=97	=97
2B	0e	2G	1r
1A	.	1c	.
.	.	.	1a
4G	.	4B	.
4F	.	4A	.
=98	=98	=98	=98
2E	0e	2B	2g
2AA	.	1A	1cc
2r	.	.	.
2A	.	4G	4b
.	.	4F	4a
=99	=99	=99	=99
2G	0e	1E	4b
.	.	.	4a
1c	.	.	4g
.	.	.	4f
.	.	2r	2e
4B	.	2A	2cc
4A	.	.	.
=100	=100	=100	=100
2B	1e	2G	2b
1A	.	1c	2cc
.	2.f	.	2a
2F	.	2A	2cc
.	4e	.	.
=101	=101	=101	=101
2G	2d	2B	2b
2A	2c	2e	1a
1E	1B	2r	.
.	.	[2e	2g#i
=102	=102	=102	=102
1r	1A	2e]	[0a
.	.	2c	.
2r	2r	2d	.
[2A	2e	2e	.
=103	=103	=103	=103
2A]	1f	2A	1a]
2F	.	1d	.
2G	1e	.	2r
2A	.	2c	2e
=104	=104	=104	=104
1D	2d	2B-X	1f
.	2c	1A	.
1E	1B	.	1e
.	.	2G	.
=105	=105	=105	=105
0AA	2A	1A	2r
.	2.c	.	1e
.	.	2r	.
.	4B	.	.
.	2A	2c	2e
=106	=106	=106	=106
2r	2G	2B	2e
2.c	2A	2A	1e
.	2E	1e	.
4B	.	.	.
2A	2c	.	2c
=107	=107	=107	=107
2G	2B	2r	1d
2F	2A	2A	.
4E	2B	2G	[1e
4D	.	.	.
4C	[2c	[2A	.
4BB	.	.	.
=108	=108	=108	=108
2AA	2c]	2A]	1e]
1A	4B	4G	.
.	4A	4F	.
.	1B	1E	2r
2G	.	.	[2e
=109	=109	=109	=109
1A	2A	0r	2e]
.	2.c	.	2e
2r	.	.	2e
.	4B	.	.
[2c	2A	.	[2e
=110	=110	=110	=110
4c]	2G	1r	2e]
4B	.	.	.
2A	2c	.	2c
2G	2B	2r	2d
2E	[2c	2G	[2e
=111	=111	=111	=111
1F	4c]	1A	4e]
.	4B	.	4d
.	1A	.	4d
.	.	.	4c
1E	.	1B	[1e
.	2G#i	.	.
=112	=112	=112	=112
2r	1A	1c	1e]
2C	.	.	.
1D	1r	2A	1r
.	.	[2B	.
=113	=113	=113	=113
1E	1r	2B]	0r
.	.	2.c	.
2.F	1A	.	.
.	.	4B	.
.	.	4A	.
4E	.	4G	.
=114	=114	=114	=114
2D	2A	4F	0r
.	.	4E	.
2C	2A	1A	.
1BB	1d	.	.
.	.	2G#i	.
=115	=115	=115	=115
1AA	2.c	2A	1e
.	.	1c	.
.	4B	.	.
1r	2A	.	2e
.	2G	2B	2e
=116	=116	=116	=116
0r	1F	2A	1a
.	.	2.c	.
.	2.E	.	2.g
.	.	4B	.
.	.	2B	.
.	4F	.	4a
=117	=117	=117	=117
0r	2G	0e	2b
.	2A	.	2cc
.	2G	.	2b
.	[2A	.	[2cc
=118	=118	=118	=118
0r	4A]	1e	4cc]
.	4B	.	4b
.	2c	.	4g
.	.	.	4a
.	2B	2.d	4b
.	.	.	4cc
.	2G	.	[2dd
.	.	4e	.
=119	=119	=119	=119
2r	2d	2f	4dd]
.	.	.	4cc
1A	2r	2e	4a
.	.	.	4b
.	1r	2c	4cc
.	.	.	4a
2G	.	[2d	2b
=120	=120	=120	=120
1F	1r	4d]	2a
.	.	4c	.
.	.	4A	2.cc
.	.	4B	.
1E	2r	2c	.
.	.	.	4b
.	[2G	2B	4g
.	.	.	4a
=121	=121	=121	=121
0r	2G]	1d	4b
.	.	.	4g
.	2F	.	2.a
.	1E	1G	.
.	.	.	4g
.	.	.	[2g
=122	=122	=122	=122
1r	1D	1A	2g]
.	.	.	2f#i
2r	1r	2.G	[1g
2E	.	.	.
.	.	4A	.
=123	=123	=123	=123
2E	0r	2B	1g]
2C	.	2c	.
2D	.	2B	2r
2E	.	[2c	2g
=124	=124	=124	=124
1F	2r	2c]	2a
.	2A	4A	2cc
.	.	4B	.
1E	2A	4c	2cc
.	.	4d	.
.	2G	[2e	2b
=125	=125	=125	=125
1r	2A	2e]	2cc
.	2B	2d	4b
.	.	.	4a
2r	1c	1e	[1g
2E	.	.	.
=126	=126	=126	=126
2E	2B	2r	1g]
2C	2e	2e	.
2D	2d	2f	2r
2E	[2c	2e	2g
=127	=127	=127	=127
1F	4c]	2c	1a
.	4B	.	.
.	1A	2d	.
1E	.	1B	1b
.	2G#i	.	.
=128	=128	=128	=128
2r	2A	1A	0e
2A	2c	.	.
2G	2B	2r	.
[2A	[2c	[2e	.
=129	=129	=129	=129
4A]	4c]	2e]	2r
4B	4B	.	.
4c	2A	2e	2cc
4A	.	.	.
2B	2G	1e	2b
2A	[2A	.	[2cc
=130	=130	=130	=130
2r	4A]	2.c	4cc]
.	4B	.	4b
2F	4c	.	2a
.	4A	4d	.
2E	4B	2e	2g
.	4c	.	.
[2D	2d	[2f	[2a
=131	=131	=131	=131
4D]	1A	4f]	4a]
4E	.	4e	4g
4F	.	4c	2f
4D	.	4d	.
2E	2G	4B	2e
.	.	4c	.
[2D	[2A	2d	[2f
=132	=132	=132	=132
4D]	2A]	4A	4f]
4AA	.	2c	4e
2C	2G	.	1e
.	.	4c	.
1D	1F	2.A	.
.	.	.	2d
.	.	4B	.
=133	=133	=133	=133
0AA	0E	1c	2e
.	.	.	2e
.	.	2r	2e
.	.	2A	2e
=134	=134	=134	=134
1D	1r	2A	1f
.	.	2F	.
2r	1e	2G	2e
[2A	.	2A	2c
=135	=135	=135	=135
2A]	1f	2D	1d
2F	.	2A	.
2G	1e	2B	1e
[2A	.	2c	.
=136	=136	=136	=136
2A]	1.e	2A	1r
2E	.	1B	.
2G	.	.	2r
2A	2e	2c	[2a
=137	=137	=137	=137
1F	1d	1A	2a]
.	.	.	2f
2E	1e	2B	2g
[2A	.	[2c	2a
=138	=138	=138	=138
2A]	1e	4c]	2e
.	.	4B	.
2G	.	1e	2g
2A	1r	.	1f
2B	.	2d	.
=139	=139	=139	=139
2.c	2r	2e	0e
.	1c	4A	.
4B	.	4B	.
2A	.	4c	.
.	.	4A	.
2G	2B	[2B	.
=140	=140	=140	=140
1A	2c	4B]	[0el
.	.	4A	.
.	2A	1A	.
1E	1B	.	.
.	.	2G#i	.
=141	=141	=141	=141
2r	2A	1A	0e_
1AA	1c	.	.
.	.	1E	.
2GG	2B	.	.
=142	=142	=142	=142
2AA	2.A	1r	0e_
2BB	.	.	.
.	8GL	.	.
.	8FJ	.	.
2.C	[1El	2r	.
.	.	2G	.
4BB	.	.	.
=143	=143	=143	=143
2AA	0E_	2A	0e_
2GG	.	2B	.
1AA	.	1c	.
=144	=144	=144	=144
00EE 00El	00E]	00Bl	00e]
==	==	==	==
*-	*-	*-	*-
!!!system-decoration: [*]
!!!RDF**kern: i = editorial accidental
!!!RDF**kern: l = terminal long
!!!ENC: Benjamin Ory
!!!END: 2021/1/17
!!!EED: Benjamin Ory
!!!EEV: 2021/04/28
!!!YEC: Copyright 2021 Benjamin Ory, All Rights Reserved
!!!ONB: Translated from MusicXML on 2021/04/28
